public/logos/18_esp/CSE.svg

<svg version="1.1" id="Layer_1" xmlns="http://www.w3.org/2000/svg" xmlns:xlink="http://www.w3.org/1999/xlink" x="0px" y="0px"
	 width="100%" viewBox="0 0 202 187" enable-background="new 0 0 202 187" xml:space="preserve">
<path fill="#2C2B29" opacity="1.000000" stroke="none"
	d="
M104.000000,188.000000
	C102.933327,188.000000 101.866661,188.000000 100.289261,187.649567
	C94.729118,184.849869 89.320648,182.936249 84.703896,179.841522
	C74.627632,173.087158 64.442406,166.333206 55.228134,158.490616
	C38.780602,144.491531 28.307537,126.121315 20.074757,106.421410
	C11.455383,85.796440 5.751459,64.383270 2.967821,42.190331
	C2.497044,38.436996 1.665085,34.728962 1.000000,31.000000
	C1.000000,27.969406 1.000000,24.938814 1.380029,21.452885
	C11.180882,18.267080 12.445707,9.978770 14.578276,2.213027
	C71.608978,2.213027 128.683456,2.213027 184.720749,2.213027
	C186.638016,6.852229 187.524902,11.615291 190.239517,14.839531
	C193.020905,18.143076 197.591476,19.940228 202.753372,23.288149
	C200.868195,34.527828 199.339462,47.307297 196.495438,59.787022
	C191.550201,81.486938 184.069687,102.278412 173.158554,121.869240
	C165.588440,135.461304 156.572052,147.863129 146.146347,159.254776
	C134.393631,172.096390 120.098267,181.422302 104.000000,188.000000
M150.302032,128.796188
	C167.318268,100.424194 177.701889,69.929153 180.260269,37.769215
	C176.454330,35.290695 172.758591,33.900497 170.680023,31.244646
	C168.598053,28.584467 168.130936,24.660452 166.868820,21.040310
	C122.943306,21.040310 78.700523,21.040310 36.220352,21.040310
	C32.864136,26.369390 30.810356,31.458118 27.156454,34.794373
	C24.690208,37.046223 23.633942,38.742172 24.178703,41.610352
	C27.121639,57.104961 29.129694,72.867226 33.348061,88.011314
	C43.014427,122.713951 63.188274,149.272171 96.540535,164.842972
	C100.998894,166.924423 104.677887,167.157547 109.186836,165.109558
	C126.405296,157.288757 139.626968,145.051819 150.302032,128.796188
z"/>
<path fill="#F5A947" opacity="1.000000" stroke="none"
	d="
M150.123657,129.111023
	C139.626968,145.051819 126.405296,157.288757 109.186836,165.109558
	C104.677887,167.157547 100.998894,166.924423 96.540535,164.842972
	C63.188274,149.272171 43.014427,122.713951 33.348061,88.011314
	C29.129694,72.867226 27.121639,57.104961 24.178703,41.610352
	C23.633942,38.742172 24.690208,37.046223 27.156454,34.794373
	C30.810356,31.458118 32.864136,26.369390 36.220352,21.040310
	C78.700523,21.040310 122.943306,21.040310 166.868820,21.040310
	C168.130936,24.660452 168.598053,28.584467 170.680023,31.244646
	C172.758591,33.900497 176.454330,35.290695 180.260269,37.769215
	C177.701889,69.929153 167.318268,100.424194 150.123657,129.111023
M149.480820,59.003498
	C153.528320,59.358822 157.575821,59.714146 161.813263,60.086143
	C162.205933,58.328129 162.779449,56.579479 162.956665,54.791553
	C163.294937,51.378521 161.522446,49.048485 158.195847,49.113979
	C148.140701,49.311951 138.093201,49.897243 128.031799,50.332047
	C128.031799,66.238403 128.133759,81.842377 127.963142,97.443375
	C127.918098,101.561905 129.366547,103.159561 133.468796,103.052879
	C140.451996,102.871254 147.445084,103.100143 154.430740,102.974625
	C162.204208,102.834953 163.980133,99.409210 160.320877,93.150276
	C154.136246,93.511215 148.251938,93.854630 142.112030,94.212959
	C142.112030,89.039009 142.112030,84.676682 142.112030,80.002708
	C146.237518,80.002708 150.040680,80.072197 153.840424,79.987587
	C160.777344,79.833138 162.529114,76.767754 159.510666,70.630539
	C153.682602,70.630539 147.966415,70.630539 142.349976,70.630539
	C142.349976,66.771156 142.349976,63.184566 142.349976,59.003559
	C144.640457,59.003559 146.593384,59.003559 149.480820,59.003498
M76.803696,48.271969
	C71.052345,48.856609 65.033546,48.552532 59.598454,50.188103
	C41.362560,55.675804 33.388878,76.007721 42.954063,91.377914
	C49.100571,101.254662 63.280876,106.234398 76.640373,103.207611
	C84.766823,101.366440 86.200989,96.838959 80.497368,90.434082
	C72.089790,93.942024 63.756474,94.990211 56.795052,87.376945
	C52.283199,82.442627 51.463150,73.764282 54.985619,67.689011
	C61.017815,57.285164 70.540344,58.034393 80.231728,60.521961
	C84.569565,52.951035 84.047218,50.716320 76.803696,48.271969
M117.657959,59.214710
	C118.156586,56.295811 120.047546,52.139416 118.818237,50.756294
	C117.096581,48.819221 112.755821,47.775108 110.065041,48.452499
	C105.402176,49.626350 100.500870,51.639229 96.848221,54.679996
	C88.404709,61.709053 89.138229,71.599640 97.849487,78.287605
	C100.479691,80.306908 103.335938,82.101738 105.649857,84.434608
	C106.875328,85.670120 108.164246,88.286751 107.632477,89.483742
	C106.828972,91.292358 104.578171,93.378319 102.729980,93.603615
	C99.286888,94.023315 95.690826,93.188156 90.803139,92.755249
	C90.803139,95.280281 89.757660,98.897316 91.105896,100.914368
	C92.378662,102.818520 96.386787,104.205376 98.805817,103.753586
	C103.534142,102.870522 108.631912,101.421814 112.436440,98.644974
	C121.440048,92.073433 121.154556,81.134026 112.514931,74.152206
	C110.063766,72.171387 107.347557,70.457825 105.163368,68.220901
	C101.429092,64.396469 102.835732,60.014961 108.109749,59.258190
	C110.992424,58.844555 114.023682,59.466450 117.657959,59.214710
z"/>
<path fill="#030201" opacity="1.000000" stroke="none"
	d="
M149.013550,59.003529
	C146.593384,59.003559 144.640457,59.003559 142.349976,59.003559
	C142.349976,63.184566 142.349976,66.771156 142.349976,70.630539
	C147.966415,70.630539 153.682602,70.630539 159.510666,70.630539
	C162.529114,76.767754 160.777344,79.833138 153.840424,79.987587
	C150.040680,80.072197 146.237518,80.002708 142.112030,80.002708
	C142.112030,84.676682 142.112030,89.039009 142.112030,94.212959
	C148.251938,93.854630 154.136246,93.511215 160.320877,93.150276
	C163.980133,99.409210 162.204208,102.834953 154.430740,102.974625
	C147.445084,103.100143 140.451996,102.871254 133.468796,103.052879
	C129.366547,103.159561 127.918098,101.561905 127.963142,97.443375
	C128.133759,81.842377 128.031799,66.238403 128.031799,50.332047
	C138.093201,49.897243 148.140701,49.311951 158.195847,49.113979
	C161.522446,49.048485 163.294937,51.378521 162.956665,54.791553
	C162.779449,56.579479 162.205933,58.328129 161.813263,60.086143
	C157.575821,59.714146 153.528320,59.358822 149.013550,59.003529
z"/>
<path fill="#050301" opacity="1.000000" stroke="none"
	d="
M77.218109,48.365585
	C84.047218,50.716320 84.569565,52.951035 80.231728,60.521961
	C70.540344,58.034393 61.017815,57.285164 54.985619,67.689011
	C51.463150,73.764282 52.283199,82.442627 56.795052,87.376945
	C63.756474,94.990211 72.089790,93.942024 80.497368,90.434082
	C86.200989,96.838959 84.766823,101.366440 76.640373,103.207611
	C63.280876,106.234398 49.100571,101.254662 42.954063,91.377914
	C33.388878,76.007721 41.362560,55.675804 59.598454,50.188103
	C65.033546,48.552532 71.052345,48.856609 77.218109,48.365585
z"/>
<path fill="#050301" opacity="1.000000" stroke="none"
	d="
M117.322952,59.418037
	C114.023682,59.466450 110.992424,58.844555 108.109749,59.258190
	C102.835732,60.014961 101.429092,64.396469 105.163368,68.220901
	C107.347557,70.457825 110.063766,72.171387 112.514931,74.152206
	C121.154556,81.134026 121.440048,92.073433 112.436440,98.644974
	C108.631912,101.421814 103.534142,102.870522 98.805817,103.753586
	C96.386787,104.205376 92.378662,102.818520 91.105896,100.914368
	C89.757660,98.897316 90.803139,95.280281 90.803139,92.755249
	C95.690826,93.188156 99.286888,94.023315 102.729980,93.603615
	C104.578171,93.378319 106.828972,91.292358 107.632477,89.483742
	C108.164246,88.286751 106.875328,85.670120 105.649857,84.434608
	C103.335938,82.101738 100.479691,80.306908 97.849487,78.287605
	C89.138229,71.599640 88.404709,61.709053 96.848221,54.679996
	C100.500870,51.639229 105.402176,49.626350 110.065041,48.452499
	C112.755821,47.775108 117.096581,48.819221 118.818237,50.756294
	C120.047546,52.139416 118.156586,56.295811 117.322952,59.418037
z"/>
</svg>

<svg xmlns="http://www.w3.org/2000/svg" xml:space="preserve" viewBox="0 0 202 187"><path fill="#2c2b29" d="M104 188c-1.067 0-2.133 0-3.71-.35-5.56-2.8-10.97-4.714-15.586-7.808-10.076-6.755-20.262-13.509-29.476-21.351-16.447-14-26.92-32.37-35.153-52.07a244.9 244.9 0 0 1-17.107-64.23C2.497 38.436 1.665 34.728 1 31c0-3.03 0-6.061.38-9.547 9.8-3.186 11.066-11.474 13.198-19.24h170.143c1.917 4.64 2.804 9.402 5.519 12.627 2.78 3.303 7.351 5.1 12.513 8.448-1.885 11.24-3.414 24.02-6.258 36.499-4.945 21.7-12.425 42.491-23.336 62.082-7.57 13.592-16.587 25.994-27.013 37.386C134.394 172.096 120.098 181.422 104 188m46.302-59.204c17.016-28.372 27.4-58.867 29.958-91.027-3.806-2.478-7.501-3.869-9.58-6.524-2.082-2.66-2.55-6.585-3.811-10.205H36.22c-3.356 5.33-5.41 10.418-9.064 13.754-2.466 2.252-3.522 3.948-2.977 6.816 2.943 15.495 4.95 31.257 9.17 46.401 9.665 34.703 29.84 61.261 63.192 76.832 4.458 2.081 8.137 2.315 12.646.267 17.218-7.821 30.44-20.058 41.115-36.314"/><path fill="#f5a947" d="M150.124 129.111c-10.497 15.94-23.719 28.178-40.937 35.999-4.51 2.048-8.188 1.814-12.646-.267-33.353-15.57-53.527-42.129-63.193-76.832-4.218-15.144-6.226-30.906-9.17-46.4-.544-2.869.512-4.565 2.978-6.817 3.654-3.336 5.708-8.425 9.064-13.754H166.87c1.262 3.62 1.73 7.544 3.811 10.205 2.079 2.655 5.774 4.046 9.58 6.524-2.558 32.16-12.942 62.655-30.136 91.342m-.643-70.108 12.332 1.083c.393-1.758.966-3.507 1.144-5.294.338-3.413-1.435-5.744-4.761-5.678-10.055.198-20.103.783-30.164 1.218 0 15.906.102 31.51-.069 47.111-.045 4.119 1.404 5.717 5.506 5.61 6.983-.182 13.976.047 20.962-.078 7.773-.14 9.55-3.566 5.89-9.825l-18.209 1.063v-14.21c4.126 0 7.929.07 11.728-.015 6.937-.155 8.69-3.22 5.67-9.357h-17.16V59.004zM76.805 48.271c-5.752.585-11.77.28-17.206 1.916-18.235 5.488-26.21 25.82-16.644 41.19 6.147 9.877 20.327 14.856 33.686 11.83 8.127-1.842 9.561-6.369 3.857-12.774-8.407 3.508-16.74 4.556-23.702-3.057-4.512-4.934-5.332-13.613-1.81-19.688 6.033-10.404 15.555-9.655 25.247-7.167 4.338-7.571 3.815-9.806-3.428-12.25m40.854 10.943c.499-2.92 2.39-7.076 1.16-8.459-1.721-1.937-6.062-2.98-8.753-2.304-4.663 1.174-9.564 3.187-13.217 6.228-8.443 7.03-7.71 16.92 1.001 23.608 2.63 2.019 5.487 3.814 7.8 6.147 1.226 1.235 2.515 3.852 1.983 5.049-.803 1.808-3.054 3.894-4.902 4.12-3.443.42-7.04-.416-11.927-.849 0 2.525-1.045 6.142.303 8.16 1.273 1.904 5.28 3.29 7.7 2.839 4.728-.883 9.826-2.332 13.63-5.109 9.004-6.572 8.719-17.511.079-24.493-2.451-1.98-5.167-3.694-7.352-5.931-3.734-3.825-2.327-8.206 2.947-8.963 2.882-.413 5.914.208 9.548-.043"/><path fill="#030201" d="M149.014 59.004h-6.664V70.63h17.16c3.02 6.137 1.267 9.202-5.67 9.357-3.8.084-7.602.015-11.728.015v14.21l18.209-1.063c3.66 6.26 1.883 9.685-5.89 9.825-6.986.125-13.979-.104-20.962.078-4.102.107-5.55-1.491-5.506-5.61.17-15.6.069-31.205.069-47.111 10.061-.435 20.109-1.02 30.164-1.218 3.326-.066 5.099 2.265 4.76 5.678-.177 1.787-.75 3.536-1.143 5.294-4.237-.372-8.285-.727-12.8-1.082"/><path fill="#050301" d="M77.218 48.366c6.83 2.35 7.352 4.585 3.014 12.156-9.692-2.488-19.214-3.237-25.246 7.167-3.523 6.075-2.703 14.754 1.81 19.688 6.96 7.613 15.294 6.565 23.701 3.057 5.704 6.405 4.27 10.932-3.857 12.774-13.36 3.026-27.54-1.953-33.686-11.83-9.565-15.37-1.591-35.702 16.644-41.19 5.436-1.635 11.454-1.331 17.62-1.822M117.323 59.418c-3.3.048-6.33-.573-9.213-.16-5.274.757-6.68 5.138-2.947 8.963 2.185 2.237 4.9 3.95 7.352 5.931 8.64 6.982 8.925 17.921-.079 24.493-3.804 2.777-8.902 4.226-13.63 5.109-2.42.451-6.427-.935-7.7-2.84-1.348-2.017-.303-5.634-.303-8.159 4.888.433 8.484 1.268 11.927.849 1.848-.226 4.099-2.312 4.902-4.12.532-1.197-.757-3.814-1.982-5.05-2.314-2.332-5.17-4.127-7.8-6.146-8.712-6.688-9.445-16.579-1.002-23.608 3.653-3.04 8.554-5.054 13.217-6.228 2.69-.677 7.032.367 8.753 2.304 1.23 1.383-.661 5.54-1.495 8.662"/></svg>
